X:1
T: Arrival at Paris
C:
R:Reel
I:speed 232
Q:232
K:G
M:4/4
L:1/8
Bc|d2B2 d2gf|e2g2 d2Bd|c2d2 B2d2|A2D2 D2Bc|d2B2 d2gf|e2g2 d2Bd|c2B2 A2dc|B2G2 G2Bc|
c2A2 c2dc|B2G2 G2gf|g2f2 g2ag|f2d2 d2Bc|d2B2 d2gf|e2g2 d2Bd|c2B2 A2dc|B2G2 G2Bc|
dB dB d2gf|efge d2Bd|cd cd Bd Bd|A2D2 D2Bc|dB dB d2gf|ef ge d2Bd|cd Bd Ae dc|B2G2 G2Bc|
cB AB ce dc|B2G2 G2gf|gf gf gb ag|f2d2 d2Bc|dB dB d2gf|ef ge d2Bd|cd Bd Ae dc|B2G2 G2||
